setcps 0.5

d1 $
  slow 2 $
  n "[c2, c3]"
  # s "superpwm"
  # sustain 8
  # gain 0.65


d2 $
  slow 8 $
  n "c4 g4 c5 ~ ~ ~ ~"
  # s "superpiano"
  # sustain 2
  # release 3
  # lpf 1500


d3 $
  slow 8 $
  n "~ ~ ~ <e4 g4 c5 e5>"
  # s "superpiano"
  # sustain 2
  # release 3
  # room 0.8
  # size 0.9
  # gain 0.9


hush
